X:1
T:Lo! A Star, Ye Sages Hoary
T:Lo! A Star, Ye Sages Hoary
T:Walter Newport
T:Samuel Kennedy Cowan, 1883
T:Public Domain Courtesy of the Cyber Hymnal™
C:Walter Newport
Z:Public Domain
Z:Courtesy of the Cyber Hymnal™
%%score ( 1 2 ) ( 3 4 )
L:1/8
M:3/4
K:C
V:1 treble 
V:2 treble 
V:3 bass 
V:4 bass 
V:1
!mf! (E2 G2) [CA]2 | [FA]4 [DG]2 | ([CG]2 [Ec]2) [FA]2 | A4 [FG]2 | G4 [CG]2 | A4 [CG]2 | %6
w: 1.~Lo! * a|star, ye|sag- * es|hoa- ry;|Lo! a|won- drous|
w: 2.~When * from|Thee we|fain * would|bor- row|Peace for|heart and|
 (c2 B2) [=FA]2 | (A4 G2) |!f! (c2 G2) [EA]2 | [EG]4 [EG]2 | [CA]4 [Fd]2 | [Ec]4 [EB]2 | %12
w: star * a-|bove; *|He * is|born, the|King of|glo- ry,|
w: soul * op-|pressed, *|Child * of|sor- rows,|heal our|sor- rows;|
 (c2 B2) [EA]2 | (c2 B2) [=FA]2 | E4 [C^F]2 | [B,G]6 | (G2 B2) [Fd]2 | ([Ee]2 [Gc]2) [FA]2 | %18
w: He, * our|won- * drous|star of|love.|Lord * of|life, * Re-|
w: Spir- * it,|give * our|spir- its|rest.|Let * all|e- * vil|
 (G2 B2) [Fd]2 | [Ee]4 [Ec]2 | (e2 c2) [EA]2 | [^GB]4 [^FB]2 | B4 [EB]2 | [FB]6 | (c2 E2) [EA]2 | %25
w: deem- * er,|Mas- ter,|Loud * the|shep- herds’|wel- come|rolls,|He * is|
w: past * be-|hav- ior|In * Thy|love for-|got- ten|be,|Let * our|
 [FA]4 [DG]2 | (G2 c2) E2 | A4 [DG]2 | G4 [EG]2 | A4 [EA]2 | [DG]6 | G6 | [EG]6 |] %33
w: born the|peo- * ple’s|pas- tor,|He the|shep- herd|of|our|souls.|
w: spir- its,|gen- * tle|Sav- ior,|Be this|day new-|born|with|Thee.|
V:2
 C4 x2 | x6 | x6 | (D2 E2) x2 | (E2 D2) x2 | (C2 D2) x2 | ^F4 x2 | F6 | E4 x2 | x6 | x6 | x6 | %12
 E4 x2 | ^F4 x2 | (E2 D2) x2 | x6 | F4 x2 | x6 | F4 x2 | x6 | E4 x2 | x6 | (E2 ^F2) x2 | x6 | %24
 E4 x2 | x6 | C4 E2 | (E2 D2) x2 | (C2 D2) x2 | (G2 F2) x2 | x6 | (D2 E2 F2) | x6 |] %33
V:3
 (G,2 E,2) [A,,E,]2 | G,2 D2 [F,B,]2 | C4 [F,C]2 | B,4 [D,B,]2 | (C2 B,2) [E,_B,]2 | %5
 (A,2 B,2) [E,C]2 | (A,2 D2) [D,C]2 | (C2 A,2 B,2) |!pp! [C,C]4 [C,C]2 | (C2 G,2) [C,_B,]2 | %10
 A,4 [D,A,]2 | [E,A,]4 [E,^G,]2 | ([A,,A,]2 [B,,^G,]2) [C,A,]2 | (E2 D2) [D,C]2 | %14
 (C2 B,2) [D,A,]2 | G,6 | [G,B,]4 [G,B,]2 | C4 [F,C]2 | [G,B,]4 [G,B,]2 | [C,C]4 [C,C]2 | %20
 (^G,2 A,2) [E,C]2 | E4 [B,^D]2 | ([B,^C]2 [A,^D]2) [^G,E]2 | [G,D]6 | C4 [A,C]2 | %25
 [G,B,]4 [F,B,]2 | [E,G,]4 C2 | [^F,C]4 [=F,B,]2 | ([E,C]2 [D,B,]2) [C,_B,]2 | (A,2 D2) [^F,C]2 | %30
 [G,C]6 | [G,,B,]6 | [C,C]6 |] %33
V:4
 C,4 x2 | B,,4 x2 | (E,2 C,2) x2 | (F,2 E,2) x2 | C,4 x2 | F,4 x2 | D,4 x2 | G,6 | x6 | C,4 x2 | %10
 (F,2 E,2) x2 | x6 | x6 | D,4 x2 | D,4 x2 | G,6 | x6 | (C,2 E,2) x2 | x6 | x6 | E,4 x2 | %21
 (E,2 ^G,2) x2 | x6 | x6 | (C2 B,2) x2 | x6 | x4 (C,E,) | x6 | x6 | ^F,4 x2 | x6 | x6 | x6 |] %33

